web/ui/src/components/workflow/workflow-viewer/svgs/task-tool/retry.svg

<svg fill="none" height="24" viewBox="0 0 24 24" width="24" xmlns="http://www.w3.org/2000/svg" xmlns:xlink="http://www.w3.org/1999/xlink"><clipPath id="a"><path d="m0 0h24v24h-24z"/></clipPath><g clip-path="url(#a)" fill="#526579"><path clip-rule="evenodd" d="m12 4c-4.41827 0-8 3.58173-8 8 0 4.4183 3.58173 8 8 8 2.2094 0 4.2081-.8943 5.6568-2.3431.3906-.3906 1.0237-.3906 1.4142-.0001.3906.3906.3906 1.0237.0001 1.4142-1.8086 1.8086-4.3099 2.929-7.0711 2.929-5.52283 0-10-4.4772-10-10 0-5.52283 4.47717-10 10-10 2.7612 0 5.2625 1.12038 7.0711 2.92895.3905.39053.3905 1.0237-.0001 1.41422-.3905.39052-1.0236.39051-1.4142-.00002-1.4487-1.44881-3.4474-2.34315-5.6568-2.34315z" fill-rule="evenodd"/><path d="m21.6682 8.48094c.0222.18502-.128.34524-.314.33519l-5.1828-.27987c-.2592-.014-.3795-.32818-.196-.5117l4.5993-4.59924c.177-.17705.4803-.0721.51.17651z"/></g></svg>

<svg width="24" height="24" viewBox="0 0 24 24" fill="none" xmlns="http://www.w3.org/2000/svg">
<g clip-path="url(#clip0_288_3658)">
<path fill-rule="evenodd" clip-rule="evenodd" d="M12 4C7.58173 4 4 7.58173 4 12C4 16.4183 7.58173 20 12 20C14.2094 20 16.2081 19.1057 17.6568 17.6569C18.0474 17.2663 18.6805 17.2663 19.071 17.6568C19.4616 18.0474 19.4616 18.6805 19.0711 19.071C17.2625 20.8796 14.7612 22 12 22C6.47717 22 2 17.5228 2 12C2 6.47717 6.47717 2 12 2C14.7612 2 17.2625 3.12038 19.0711 4.92895C19.4616 5.31948 19.4616 5.95265 19.071 6.34317C18.6805 6.73369 18.0474 6.73368 17.6568 6.34315C16.2081 4.89434 14.2094 4 12 4Z" fill="#526579"/>
<path d="M21.6682 8.48094C21.6904 8.66596 21.5402 8.82618 21.3542 8.81613L16.1714 8.53626C15.9122 8.52226 15.7919 8.20808 15.9754 8.02456L20.5747 3.42532C20.7517 3.24827 21.055 3.35322 21.0847 3.60183L21.6682 8.48094Z" fill="#526579"/>
</g>
<defs>
<clipPath id="clip0_288_3658">
<rect width="24" height="24" fill="white"/>
</clipPath>
</defs>
</svg>
